X:111
T:Lovely Kate THO3.111
O:England;London
M:C
L:1/8
Z:vmp. Peter Dunk 2011.from a transcription by Fynn Titford-Mock 2006-9
B:Thompson's Compleat Collection of 200 Favourite Country Dances Vol. III.1765-72
Q:1/4=140
K:F
C|FAcF Bdgb|AcfF EGEC|fafc dBgb|agfe f2 F::c|fefg afcA|BGgf ecGE|
FAfF EGcE|Dc=Bd c2C2|gcBA Bcdc|BAGF FEDC|B,DGB cegb|agfe f2 F:|

